X:1
T:Festus, LM
T:Festus, LM
T:German Chorale from Moravian Psalter
T:Public Domain Courtesy of the Cyber Hymnal™
C:German Chorale from Moravian Psalter
Z:Public Domain
Z:Courtesy of the Cyber Hymnal™
%%score ( 1 2 ) ( 3 4 )
L:1/8
Q:1/4=110
M:4/4
K:D
V:1 treble 
V:2 treble 
V:3 bass 
V:4 bass 
V:1
 [FA]2 | [Fd]2 (cB) [FA]2 [DB]2 | [DE]2 [CG]2 [DF]2 [DF]2 | [CE]2 [EA]2 (F^G) [EA]2 | %4
 [FA]2 [^Gd]2 [Ac]2 [EA]2 | [Dd]2 (AG) F2 [CA]2 | [Dd]2 (ed) [Ec]2 [EA]2 | [Dd]2 [FA]2 (Bc) [Dd]2 | %8
 [DF]2 [CE]2 D2 |] %9
V:2
 x2 | x2 G2 x4 | x8 | x4 D2 x2 | x8 | x2 E2 F2 x2 | x2 G2 x4 | x4 G2 x2 | x4 D2 |] %9
V:3
 [D,A,]2 | [D,A,]2 [E,C]2 [F,D]2 [G,B,]2 | A,2 [A,,A,]2 [D,A,]2 [D,A,]2 | %3
 [A,,A,]2 [C,A,]2 [D,A,]2 [C,C]2 | [B,,D]2 [E,E]2 [A,,E]2 C2 | [F,A,]2 [C,A,]2 [D,A,]2 [E,G,]2 | %6
 [F,A,]2 [G,B,]2 A,2 C2 | [F,A,]2 [D,D]2 [G,D]2 ([F,A,][G,B,]) | A,2 [A,,G,]2 [D,F,]2 |] %9
V:4
 x2 | x8 | A,2 x6 | x8 | x6 (A,G,) | x8 | x4 A,2 (A,G,) | x8 | A,2 x4 |] %9

